polaris-icons/icons/newicons/PromoteMinor.svg

<svg width="20" height="20" viewBox="0 0 20 20" fill="none" xmlns="http://www.w3.org/2000/svg">
<path fill-rule="evenodd" clip-rule="evenodd" d="M13.25 3.75C12.6967 3.75 12.3045 4.10406 12.0652 4.42458C12.0357 4.46408 12.007 4.50499 11.9791 4.54721L6.06232 6.2039C5.95261 6.23462 5.83921 6.25019 5.72528 6.25019H3.75C2.7835 6.25019 2 7.03369 2 8.00019V10.5002C2 11.4667 2.7835 12.2502 3.75 12.2502H5.54939L6.26609 15.6545C6.33915 16.0016 6.64533 16.25 7 16.25H9.75C9.97856 16.25 10.1946 16.1458 10.3369 15.9669C10.4792 15.788 10.5322 15.5541 10.4808 15.3314L10.0373 13.4095L11.9794 13.9533C12.0072 13.9953 12.0358 14.0361 12.0652 14.0754C12.3045 14.3959 12.6967 14.75 13.25 14.75C13.8033 14.75 14.1955 14.3959 14.4348 14.0754C14.6843 13.7413 14.8771 13.3056 15.0258 12.8346C15.3261 11.8838 15.5 10.6166 15.5 9.25C15.5 7.88343 15.3261 6.61621 15.0258 5.66539C14.8771 5.19437 14.6843 4.75867 14.4348 4.42458C14.1955 4.10406 13.8033 3.75 13.25 3.75ZM12.5 9.25C12.5 7.99321 12.6619 6.88543 12.9045 6.11709C13.0209 5.74858 13.1442 5.49578 13.25 5.34558C13.3558 5.49578 13.4791 5.74858 13.5955 6.11709C13.8381 6.88543 14 7.99321 14 9.25C14 10.5068 13.8381 11.6146 13.5955 12.3829C13.4791 12.7514 13.3558 13.0042 13.25 13.1544C13.1442 13.0042 13.0209 12.7514 12.9045 12.3829C12.6619 11.6146 12.5 10.5068 12.5 9.25ZM13.1457 13.2731L13.1444 13.2742C13.1444 13.2744 13.1463 13.2734 13.15 13.2705L13.1457 13.2731ZM11.3046 12.2066L6.80804 10.9476L6.75 10.6719V7.56904L11.3045 6.29376C11.1094 7.14443 11 8.16596 11 9.25C11 10.3342 11.1095 11.3559 11.3046 12.2066ZM7.60855 14.75L7.15652 12.6029L8.39152 12.9487L8.80721 14.75H7.60855ZM5.25 10.75V7.75019H3.75C3.61193 7.75019 3.5 7.86212 3.5 8.00019V10.5002C3.5 10.6383 3.61193 10.7502 3.75 10.7502L5.25 10.75Z" fill="black"/>
<path d="M17.5 8.25C17.0858 8.25 16.75 8.58579 16.75 9C16.75 9.41421 17.0858 9.75 17.5 9.75H19C19.4142 9.75 19.75 9.41421 19.75 9C19.75 8.58579 19.4142 8.25 19 8.25H17.5Z" fill="black"/>
<path d="M19.2115 5.26303C19.3425 5.65599 19.1301 6.08073 18.7372 6.21172L17.2372 6.71172C16.8442 6.8427 16.4195 6.63033 16.2885 6.23737C16.1575 5.84442 16.3699 5.41968 16.7628 5.28869L18.2628 4.78869C18.6558 4.65771 19.0805 4.87008 19.2115 5.26303Z" fill="black"/>
<path d="M17.2372 11.2887C16.8442 11.1577 16.4195 11.3701 16.2885 11.763C16.1575 12.156 16.3699 12.5807 16.7628 12.7117L18.2628 13.2117C18.6558 13.3427 19.0805 13.1303 19.2115 12.7374C19.3425 12.3444 19.1301 11.9197 18.7372 11.7887L17.2372 11.2887Z" fill="black"/>
</svg>

<svg viewBox="0 0 20 20" fill="none" xmlns="http://www.w3.org/2000/svg"><path fill-rule="evenodd" clip-rule="evenodd" d="M13.25 3.75c-.553 0-.945.354-1.185.675-.03.04-.058.08-.086.122l-5.917 1.657a1.25 1.25 0 0 1-.337.046h-1.975a1.75 1.75 0 0 0-1.75 1.75v2.5c0 .967.784 1.75 1.75 1.75h1.8l.716 3.405a.75.75 0 0 0 .734.595h2.75a.75.75 0 0 0 .73-.919l-.443-1.921 1.942.543c.028.042.057.083.086.122.24.32.632.675 1.185.675s.945-.354 1.185-.675c.25-.334.442-.77.59-1.24.301-.951.475-2.218.475-3.585s-.174-2.634-.474-3.585c-.149-.47-.342-.906-.591-1.24-.24-.32-.632-.675-1.185-.675Zm-.75 5.5c0-1.257.162-2.365.405-3.133.116-.368.24-.621.345-.771.106.15.23.403.345.771.243.768.405 1.876.405 3.133 0 1.257-.162 2.365-.405 3.133-.116.368-.24.621-.345.771-.106-.15-.23-.403-.345-.771-.243-.768-.405-1.876-.405-3.133Zm.646 4.023-.002.001.006-.003-.004.002Zm-1.841-1.066-4.497-1.26-.058-.275v-3.103l4.555-1.275c-.196.85-.305 1.872-.305 2.956 0 1.084.11 2.106.305 2.957Zm-3.696 2.543-.452-2.147 1.235.346.415 1.801h-1.198Zm-2.359-4v-3h-1.5a.25.25 0 0 0-.25.25v2.5c0 .138.112.25.25.25h1.5Z" fill="#5C5F62"/><path d="M17.5 8.25a.75.75 0 0 0 0 1.5h1.5a.75.75 0 0 0 0-1.5h-1.5Z" fill="#5C5F62"/><path d="M19.212 5.263a.75.75 0 0 1-.475.949l-1.5.5a.75.75 0 0 1-.474-1.423l1.5-.5a.75.75 0 0 1 .948.474Z" fill="#5C5F62"/><path d="M17.237 11.289a.75.75 0 0 0-.474 1.423l1.5.5a.75.75 0 0 0 .474-1.423l-1.5-.5Z" fill="#5C5F62"/></svg>
